X:1
T:Hana Bi
T:Hana Bi
T:from Encore
T:Joe Hisaishi
T:Arr. by Miumo
T:All Rights Reserved
T:All Rights Reserved
T:All Rights Reserved
T:All Rights Reserved
C:Joe Hisaishi
Z:Arr. by Miumo
Z:All Rights Reserved
%%score { ( 1 4 ) | ( 2 3 ) }
L:1/8
Q:1/4=60
M:3/4
K:Bb
V:1 bass nm="Piano" snm="Pno."
V:4 bass 
V:2 bass 
V:3 bass 
V:1
!pp! D,2- G,2 A,>B, | D2 C2 B,>A, | C2 B,3 A, | D,6 | (D,2 G,2 A,>B, | F2 E2 =B,C | E2 D3 ^C | %7
 D4)!<(! (DE!<)! |[M:4/4]!p! DCCG, C4) | (CB,B,F, B,3) (B,/C/ | B,A,CB, A, G,2 ^F, | %11
 [G,A,]4) ^F,4 |[M:3/4][K:treble]!mf![Q:1/4=92]"^Andante"[Q:1/4=75] ([CD]2 [B,DG]2 [A,DA]>[B,B] | %13
 [EGd]2 [EGc]2 [EGB]>[EA] | [E^Fc]2 [EFB]3 A | D)G, _DG, C^F, | ([CD]2 [B,DG]2 [A,DA]>[B,B] | %17
 [GBf]2 [GBe]2 =Bc |"_dim." [_GAe]2 [_GAd]3 ^c |!p! [FAd]3) (d ge |[M:4/4] d2 c4) (ge | d6) (GA | %22
[M:3/4] [FGB]4) (AG | [D^FB]4) (D2 | [B,EG]2 [C=F]4 | !arpeggio![A,B,DG]4) [DG]2 | z d-d'dd'd | %27
 d'dd'dd'd |!mp! ([bd']d[bd']d[bd']d) | ([bd']d[bd']d[gd']d) | [^fd']d[fd']d[fd']d | %31
!<(! [gd']d[gd']d[^fd']!<)!d |!mf! [bd']d[bd']d[bd']d | [gd']d[gd']d[gd']d | [^fd']d[fd']d[fd']d | %35
"_dim." [ad']d[^fd']d[gd']d |[M:4/4]!p! z2 ([GB]/[Ac][Bd]/- [Bd]/[Ac]/[GB] [Ac][GB]) | %37
 z2 ([GB]/[Ac][Bd]/- [Bd]/[ce]/[Bd] [Ac][GB]) | z2 ([GB]/[Ac][Bd]/- [Bd]/[Ac]/[GB] [Ac][GB]) | %39
 z2 ([GB]/[Ac][Bd]/- [Bd]/[ce]/[Bd] [Ac][GB]) | z2 ([ce]/[df][eg]/- [eg]/[df]/[ce] [df][ce]) | %41
 z2 ([ce]/[df][eg]/- [eg]/[f_a]/[eg] [df][ce]) | z2 ([GB]/[Ac][Bd]/- [Bd]/[Ac]/[GB] [Ac][GB]) | %43
 z2 ([GB]/[Ac][Bd]/- [Bd]/.[ce]/[Bd] [Ac][GB]) | %44
[Q:1/4=92]"^Andante"[Q:1/4=100]"^\n""_cresc." z2 (3(dgf (3dgf (3dgf |[M:3/4] (3dgf (3dgf (3dgf) | %46
!f![Q:1/4=100]"_rall." ([DGBd]2[Q:1/4=99]"^.9" [Gg]2[Q:1/4=99]"^.7" [Aa]>[Q:1/4=99]"^.6"[Bb][Q:1/4=99]"^.8" | %47
 [dbd']2[Q:1/4=99]"^.4" [cc']2[Q:1/4=99]"^.3" [Bb]>[Q:1/4=99]"^.2"[Aea] | %48
[Q:1/4=99]"^.1" [c^fc']2[Q:1/4=99] [Bb]3[Q:1/4=98]"^.8" [Aa] | %49
[Q:1/4=98]"^.7" [Dd]6)[Q:1/4=98]"^.6"[Q:1/4=98]"^.5"[Q:1/4=98]"^.4"[Q:1/4=98]"^.3" | %50
[Q:1/4=98]"^.2" ([DGBd]2[Q:1/4=98]"^.1" [Gg]2[Q:1/4=97]"^.9" [Aa]>[Q:1/4=97]"^.8"[Bb][Q:1/4=98] | %51
 [fbf']2[Q:1/4=97]"^.6" [ee']2[Q:1/4=97]"^.5" [=B=b][Q:1/4=97]"^.4"[cc'] | %52
 !arpeggio![ee']2[Q:1/4=97]"^.2" !///-!d[Q:1/4=97]"^.1" d' d'[Q:1/4=97][^c^c'] | %53
[Q:1/4=96]"^.9" !///-!d[Q:1/4=96]"^.8" d'-!>(! d'2)[Q:1/4=96]"^.6" ([dd']!>)![Q:1/4=96]"^.5"[ee'] | %54
[M:4/4]!mf! [dd'][Q:1/4=96]"^.4"[cc'][Q:1/4=96]"^.3"[cc'][Gg][Q:1/4=96]"^.2" [cc']4)[Q:1/4=96]"^.1"[Q:1/4=96] | %55
[Q:1/4=95]"^.9" ([cc'][Q:1/4=95]"^.8"[Bb][Q:1/4=95]"^.7"[Bb][Ff][Q:1/4=95]"^.6" [Bb]3)[Q:1/4=95]"^.4" [Bb]/[Q:1/4=95]"^.3"[cc']/[Q:1/4=95]"^.5" | %56
"_cresc." [Bb][Q:1/4=95]"^.2"[Aa][Q:1/4=95]"^.1"[cc'][Bb][Q:1/4=95] [Aa][Q:1/4=94]"^.9" [Gg]2[Q:1/4=94]"^.8" [^F^f] | %57
[Q:1/4=94]"^.7"!f! z[Q:1/4=94]"^.6" ([CE][B,D][Q:1/4=94]"^.5"[A,C][Q:1/4=94]"^.4" [G,B,]2[Q:1/4=94]"^.3" [^F,A,]2)[Q:1/4=94]"^.2" | %58
[M:3/4][Q:1/4=94]"^.1" ([DGBd]2[Q:1/4=94] [Gg]2[Q:1/4=93]"^.8" [Aa]>[Q:1/4=93]"^.7"[Bb][Q:1/4=93]"^.9" | %59
 [dbd']2[Q:1/4=93]"^.5" [cc']2[Q:1/4=93]"^.4" [Bb]>[Q:1/4=93]"^.3"[Aea] | %60
[Q:1/4=93]"^.2" [c^fc']2[Q:1/4=93]"^.1" [Bb]3[Q:1/4=92]"^.9" [Aa] | %61
[Q:1/4=92]"^.8" [Dd]6)[Q:1/4=92]"^.7"[Q:1/4=92]"^.6"[Q:1/4=92]"^.5" | %62
[Q:1/4=92]"^.4" ([DGBd]2[Q:1/4=92]"^.2" [Gg]2[Q:1/4=92]"^.1" [Aa]>[Q:1/4=91]"^.9"[Bb][Q:1/4=92]"^.3"[Q:1/4=92] | %63
 [fbf']2[Q:1/4=91]"^.8" [ee']2[Q:1/4=91]"^.6" [=B=b]>[Q:1/4=91]"^.5"[cc'] | %64
 !arpeggio![ee']2[Q:1/4=91]"^.3" !///-!d d'[Q:1/4=91]"^.2" d'[Q:1/4=91]"^.1"[^c^c'] | %65
[Q:1/4=91] !///-!d d'-[Q:1/4=90]"^.9" d')[Q:1/4=90]"^.8"([dd'][Q:1/4=90]"^.7" [gg'][ee'] | %66
[M:4/4][Q:1/4=90]"^.6" !arpeggio![dd']2!f![Q:1/4=90]"^.4" [cc']4)[Q:1/4=90]"^.1" ([gg'][ee'][Q:1/4=90]"^.5"[Q:1/4=90]"^.3"[Q:1/4=90]"^.2" | %67
[Q:1/4=90]"_rall." [dgbd']6)[Q:1/4=88]"^.6" (G[Q:1/4=88]"^.4"A[Q:1/4=89]"^.8"[Q:1/4=89]"^.5"[Q:1/4=89]"^.3"[Q:1/4=89]"^.1" | %68
[M:3/4][Q:1/4=88]"^.2" [FGB]4)[Q:1/4=87]"^.3" (A[Q:1/4=87]G | %69
[Q:1/4=86]"^.8" [D^FB]4)[Q:1/4=85]"^.9" (D2 |[Q:1/4=85]"^.5" !>![B,EG]2[Q:1/4=85] !>![A,CFG]4 | %71
[Q:1/4=84]"^.1" !arpeggio![A,B,DG]4)[Q:1/4=83]"^.2" [DG]2[Q:1/4=83]"^.9"[Q:1/4=83]"^.6"[Q:1/4=83]"^.4" | %72
!mp![Q:1/4=82]"^.7" !arpeggio![FGBd]6[Q:1/4=82]"^.5"[Q:1/4=82]"^.3"[Q:1/4=82][Q:1/4=81]"^.8"[Q:1/4=81]"^.6" | %73
[Q:1/4=81]"^.4""_cresc." [FAcd]4[Q:1/4=80]"^.5" (c[Q:1/4=80]"^.2"f[Q:1/4=81]"_.1"[Q:1/4=80]"^.9"[Q:1/4=80]"^.7" | %74
[Q:1/4=80]"_rall." [FBe]4)!f![Q:1/4=73]"^.3" !>![FBe]2[Q:1/4=78]"^.3"[Q:1/4=76]"^.7"[Q:1/4=75] | %75
[Q:1/4=70] !>!!fermata![Gcdf]6 |] %76
V:2
 z6 | z6 | z6 | z6 | G,,6 | C,,6 | F,,6 | B,,,6 |[M:4/4][I:staff -1] E,8 | F,8 | =E,8 | %11
[I:staff +1] [D,,D,]8 |[M:3/4] (G,,D, G,2) [^F,,^F,]>[=F,,=F,] | (D,,G,,C,E, G,2) | %14
 (D,,A,,D,^F, A,2) | [=E,,=E,]2 [_E,,_E,]2 [D,,D,]2 | (G,,D, G,2) [^F,,^F,]>[=F,,=F,] | %17
 (D,,G,,C,E, G,2) | (E,,C,F,A, C2) | (B,,F,A,DA,F,) |[M:4/4] (_A,,E,_A,C A,E,CA,) | %21
 (G,,D,=A,B, F2) z2 |[M:3/4] [E,_D]6 | [D,C]6 | [C,G,]2 [D,A,]4 | (G,,D,G,A, B,2) | %26
 ([G,-D]4 [G,C]2 | [G,B,]2 [^F,A,]4) | ([G,,-D,]2 [G,,-G,]2 [G,,-A,]>[G,,B,] | %29
 !arpeggio![C,-E,-G,-D]2 [C,-E,-G,-C]2 [C,-E,-G,-B,]>[C,E,G,A,]) | %30
 ([D,-A,-C]2 [D,-A,-B,]2 [D,A,A,]2 | [=E,,D,]2) !>![_E,G,_D]2 !>![=D,^F,C]2 | %32
 ([G,,-D,]2 [G,,-G,]2 [G,,-A,]>[G,,B,] | !arpeggio![G,-B,-C-F]2 [G,-B,-C-E]2 [G,-B,-B,C-][G,B,CC] | %34
 !arpeggio![F,-A,-C-E]2 [F,-A,-C-D]3 [F,A,CC] | D6) |[M:4/4] (G,,D,G,D, A,D,G,D,) | %37
 (G,,D,G,D, A,D,G,D,) | (G,,D,G,D, A,D,G,D,) | (G,,/D,/G,/A,/ B,6) | (C,G,CG, DG,CG,) | %41
 (C,G,CG, DG,CG,) | (G,,/D,/G,/A,/ B,6) | (G,,/D,/G,/A,/ B,/CD/- D/.E/D CB,) | (CF G6-) | %45
[M:3/4] G6 | [G,,,G,,][^F,,,^F,,][=F,,,=F,,][=E,,,=E,,] (3[_E,,,_E,,][D,,,D,,][_D,,,_D,,] | %47
 z2 [E,G,B,D]2 [E,G,B,D]2 | z2 [^F,A,CE]2 [F,A,CE]2 | %49
 z[I:staff -1] [G,D][I:staff +1] z[I:staff -1] [G,_D][I:staff +1] z[I:staff -1] [^F,C] | %50
[I:staff +1] [G,,,G,,][^F,,,^F,,][=F,,,=F,,][=E,,,=E,,] (3[_E,,,_E,,][D,,,D,,][_D,,,_D,,] | %51
 z2 [G,B,CE]2 [G,B,CE]2 | z2 [_G,A,CE]2 [G,A,CE]2 | z2 [F,A,D]2 [F,A,D]2 | %54
[M:4/4] (E,,B,,E,G, E,B,,G,E,) | (D,,D,F,B, CB,F,D,) | (^C,,^C,=E,G, B,^C=EC) | %57
 ([D,,,D,,]D,,,D,,D,,, D,,D,,,D,,D,,,) | %58
[M:3/4] [G,,,G,,][^F,,,^F,,][=F,,,=F,,][=E,,,=E,,] (3[_E,,,_E,,][D,,,D,,][_D,,,_D,,] | %59
 z2 [E,G,B,D]2 [E,G,B,D]2 | z2 [^F,A,CE]2 [F,A,CE]2 | %61
 z[I:staff -1] [G,D][I:staff +1] z[I:staff -1] [G,_D][I:staff +1] z[I:staff -1] [^F,C] | %62
[I:staff +1] [G,,,G,,][^F,,,^F,,][=F,,,=F,,][=E,,,=E,,] (3[_E,,,_E,,][D,,,D,,][_D,,,_D,,] | %63
 z2 [G,B,CE]2 [G,B,CE]2 | z2 [_G,A,CE]2 [G,A,CE]2 | z2 [F,A,D]2 [F,A,D]2 | %66
[M:4/4]"^sempre" (_A,,E,_A,C A,E,CA,) | (G,,D,=A,B, F2) z2 |[M:3/4] [E,_D]6 | [D,C]6 | %70
 !>![C,,G,,]2 !>![D,,A,,]4 | (G,,D,!>(!G,A, B,2)!>)! | (E,B,D[I:staff -1]FGB) | %73
[I:staff +1] (D,A,CF- F2) | (_D,_A,CF) !>![_D,,,_D,,]2 | !>!!fermata![C,,,C,,]6 |] %76
V:3
 x6 | x6 | x6 | x6 | x6 | x6 | x6 | x6 |[M:4/4] [E,,E,]8 | [D,,D,]8 | [C,,C,]8 | x8 |[M:3/4] x6 | %13
 x6 | x6 | x6 | x6 | x6 | x6 | x6 |[M:4/4] x8 | x8 |[M:3/4] x6 | x6 | x6 | x6 | x6 | x6 | x6 | x6 | %30
 x6 | x6 | x6 | x6 | x6 | [F,A,B,]6 |[M:4/4] x8 | x8 | x8 | x8 | x8 | x8 | x8 | x8 | x8 | %45
[M:3/4] x6 | x6 | [C,,,C,,]6 | [D,,,D,,]6 | [=E,,=E,]2 [_E,,_E,]2 [_D,,_D,]2 | x6 | [C,,,C,,]6 | %52
 [F,,,F,,]6 | [B,,,B,,]6 |[M:4/4] x8 | x8 | x8 | x8 |[M:3/4] x6 | [C,,,C,,]6 | [D,,,D,,]6 | %61
 [=E,,=E,]2 [_E,,_E,]2 [_D,,_D,]2 | x6 | [C,,,C,,]6 | [C,,,C,,]6 | [B,,,B,,]6 |[M:4/4] x8 | x8 | %68
[M:3/4] x6 | x6 | x6 | x6 | x6 | x6 | x6 | x6 |] %76
V:4
 x6 | x6 | x6 | x6 | x6 | x6 | x6 | x6 |[M:4/4] x8 | x8 | x8 | x8 |[M:3/4][K:treble] x6 | x6 | x6 | %15
 x6 | x6 | x6 | x6 | x6 |[M:4/4] x8 | x8 |[M:3/4] x6 | x6 | x6 | x6 | x6 | x6 | x6 | x6 | x6 | x6 | %32
 x6 | x6 | x6 | x6 |[M:4/4] x8 | x8 | x8 | x8 | x8 | x8 | x8 | x8 | x8 |[M:3/4] x6 | x6 | x6 | x6 | %49
 x6 | x6 | x6 | x6 | x6 |[M:4/4] x8 | x8 | x8 | [Aa]8 |[M:3/4] x6 | x6 | x6 | x6 | x6 | x6 | x6 | %65
 x6 |[M:4/4] x8 | x8 |[M:3/4] x6 | x6 | x6 | x6 | x6 | x6 | x6 | x6 |] %76

